X: 30900
T: Over The Bourn To Dawlish
R: jig
M: 6/8
K: Bminor
|:FBd ~f3|ecA ecA|~B3 Bcd|cAF cAF|
FBd ~f3|ecA ecA|~B3 Bcd|1 cAF BAG:|2 cAF Bde||
|:fbb baf|fed d2e|fdf fdf|ece ede|
fbb baf|fed d2e|fdf ecA|1 cAF Bde:|2 cAF BAG||

